app/images/icon-types/5252ce4ce4cfcd16f55cfa3c-prez.svg

<svg xmlns="http://www.w3.org/2000/svg" viewBox="-4.2 -0.9 255.3 336" enable-background="new -4.2 -0.9 255.3 336"><path fill="#f4b401" d="M233.9,333H16.1C7.2,333,0,325.8,0,316.9V16.1C0,7.2,7.2,0,16.1,0H168l82,81.9v235
		C250,325.8,242.8,333,233.9,333z"/><path fill="#dba749" d="M250 127.1 171.2 80.3 168 0 250 82z"/><path fill="#ffcf64" d="M167.7,0v72.8c0,5.2,4.2,9.5,9.5,9.5H250L167.7,0z"/><path fill="#fff" d="m153.6 134.6v58.2h-103.6v-58.2h103.6m8.8-14h-121.2c-2.9 0-5.2 2.3-5.2 5.2v75.7c0 2.9 2.3 5.2 5.2 5.2h121.2c2.9 0 5.2-2.3 5.2-5.2v-75.7c0-2.9-2.3-5.2-5.2-5.2z"/><path fill="#f4b401" d="m91.4 176h117.6v72.2h-117.6z"/><path fill="#fff" d="m202.1 183v58.2h-103.7v-58.2h103.7m8.7-14h-121.1c-2.9 0-5.2 2.3-5.2 5.2v75.8c0 2.9 2.3 5.2 5.2 5.2h121.2c2.9 0 5.2-2.3 5.2-5.2v-75.7c0-2.9-2.4-5.3-5.3-5.3z"/></svg>

<?xml version="1.0" encoding="utf-8"?>
<!-- Generator: Adobe Illustrator 17.1.0, SVG Export Plug-In . SVG Version: 6.00 Build 0)  -->
<!DOCTYPE svg PUBLIC "-//W3C//DTD SVG 1.1//EN" "http://www.w3.org/Graphics/SVG/1.1/DTD/svg11.dtd">
<svg version="1.1" xmlns="http://www.w3.org/2000/svg" xmlns:xlink="http://www.w3.org/1999/xlink" x="0px" y="0px"
	 viewBox="-4.2 -0.9 255.3 336" enable-background="new -4.2 -0.9 255.3 336" xml:space="preserve">
<g id="Calque_1">
	<path fill="#F4B401" d="M233.9,333H16.1C7.2,333,0,325.8,0,316.9V16.1C0,7.2,7.2,0,16.1,0H168l82,81.9v235
		C250,325.8,242.8,333,233.9,333z"/>
	<polygon fill="#DBA749" points="250,127.1 171.2,80.3 168,0 250,82 	"/>
	<path fill="#FFCF64" d="M167.7,0v72.8c0,5.2,4.2,9.5,9.5,9.5H250L167.7,0z"/>
	<g>
		<path fill="#FFFFFF" d="M153.6,134.6v58.2H50v-58.2H153.6 M162.4,120.6H41.2c-2.9,0-5.2,2.3-5.2,5.2v75.7c0,2.9,2.3,5.2,5.2,5.2
			h121.2c2.9,0,5.2-2.3,5.2-5.2v-75.7C167.6,122.9,165.3,120.6,162.4,120.6L162.4,120.6z"/>
	</g>
	<g>
		<rect x="91.4" y="176" fill="#F4B401" width="117.6" height="72.2"/>
		<g>
			<path fill="#FFFFFF" d="M202.1,183v58.2H98.4V183H202.1 M210.8,169H89.7c-2.9,0-5.2,2.3-5.2,5.2V250c0,2.9,2.3,5.2,5.2,5.2h121.2
				c2.9,0,5.2-2.3,5.2-5.2v-75.7C216.1,171.4,213.7,169,210.8,169L210.8,169z"/>
		</g>
	</g>
</g>
<g id="Calque_2">
</g>
<g id="Calque_7">
</g>
<g id="Calque_3">
</g>
<g id="Calque_4">
</g>
<g id="Calque_5">
</g>
<g id="Calque_6">
</g>
<g id="Calque_8">
</g>
</svg>
